!!!!SEGMENT: Mlu2013-Regina_celi.krn
!!!id: Mlu2013
!!!AGN: Motet
!!!voices: 4
!!!COM: Pierre Moulu
!!!OTL: Regina celi
**kern	**kern	**kern	**kern
*part4	*part3	*part2	*part1
*staff4	*staff3	*staff2	*staff1
*I"Bassus	*I"Tenor	*I"Altus	*I"Superius
*I'B	*I'T	*I'A	*I'S
*clefF4	*clefGv2	*clefGv2	*clefGv2
*k[b-]	*k[b-]	*k[b-]	*k[b-]
*F:	*F:	*F:	*F:
*M2/1	*M2/1	*M2/1	*M2/1
*met(C|)	*met(C|)	*met(C|)	*met(C|)
!!section: Prima pars: Regina celi
!!!OMD: Prima pars: Regina celi
=1	=1	=1	=1
!	!	!LO:TX:a:t=Canon&colon; altus/superius at the unison	!
2r	0r	1F	0r
1F	.	.	.
.	.	1G	.
2E	.	.	.
=2	=2	=2	=2
2F	2r	1F	0r
2D	1F	.	.
1C	.	1G	.
.	2E	.	.
=3	=3	=3	=3
2r	2F	1A	1F
1F	2D	.	.
.	1C	1r	1G
2E	.	.	.
=4	=4	=4	=4
2F	2r	0r	1F
2D	1F	.	.
1C	.	.	1G
.	2E	.	.
=5	=5	=5	=5
2r	2F	1r	1A
2FF	2.D	.	.
2.BB-y	.	[1B-y	1r
.	4C	.	.
.	[2F	.	.
4AA	.	.	.
=6	=6	=6	=6
1GG	2F]	1B-]	0r
.	2E	.	.
2FF	1F	1A	.
2F	.	.	.
=7	=7	=7	=7
2E	0r	2G	1r
2.G	.	2.B-y	.
.	.	.	[1B-y
4F	.	4A	.
[2F	.	4G	.
.	.	4F	.
=8	=8	=8	=8
2F]	1r	1G	1B-]
2E	.	.	.
1F	2r	1F	1A
.	2F	.	.
=9	=9	=9	=9
1r	2E	0r	2G
.	2.G	.	2.B-y
2r	.	.	.
.	4F	.	4A
2FF	[2F	.	4G
.	.	.	4F
=10	=10	=10	=10
2.C	2F]	2r	1G
.	2E	2G	.
4BB-y	.	.	.
4AA	1F	2A	1F
4GG	.	.	.
[2FF	.	[2c	.
=11	=11	=11	=11
2FF]	1r	4c]	0r
.	.	4B-y	.
2C	.	4A	.
.	.	4G	.
2D	2r	1F	.
[2F	2F	.	.
=12	=12	=12	=12
4F]	2.c	1G	2r
8EL	.	.	.
8DJ	.	.	.
2E	.	.	2G
.	4B-y	.	.
2F	4A	1F	2A
.	4G	.	.
[2A	[2F	.	[2c
=13	=13	=13	=13
4A]	2F]	1r	4c]
4G	.	.	4B-y
4F	2c	.	4A
4E	.	.	4G
1D	2d	2r	1F
.	[2f	2F	.
=14	=14	=14	=14
1C	4f]	1c	1G
.	8eL	.	.
.	8dJ	.	.
.	2e	.	.
2r	2A	1c	1F
2F	[2c	.	.
=15	=15	=15	=15
2F	2c]	1d	1r
2G	2BnXi	.	.
2A	1c	1c	2r
[2F	.	.	2F
=16	=16	=16	=16
2F]	2r	0r	1c
4E	2F	.	.
4D	.	.	.
1C	2G	.	1c
.	2A	.	.
=17	=17	=17	=17
1BB-y	2.B-y	2r	1d
.	.	1B-y	.
.	4A	.	.
2r	2F	.	1c
2C	2c	[2A	.
=18	=18	=18	=18
2D	2B-y	4A]	0r
.	.	8GL	.
.	.	8FJ	.
2E	1c	2G	.
2.F	.	2A	.
.	2F	[2c	.
4E	.	.	.
=19	=19	=19	=19
2C	1G	4c]	2r
.	.	4B-y	.
1G	.	2G	1B-y
.	1r	1A	.
[2F	.	.	[2A
=20	=20	=20	=20
2F]	2r	1B-y	4A]
.	.	.	8GL
.	.	.	8FJ
2E	2G	.	2G
2F	2.c	1A	2A
[2C	.	.	[2c
.	4B-y	.	.
=21	=21	=21	=21
2C]	4A	0r	4c]
.	4G	.	4B-y
2BB-y	2B-y	.	2G
2C	2A	.	1A
2AA	[2F	.	.
=22	=22	=22	=22
1GG	2F]	1r	1B-y
.	2E	.	.
2FF	2F	2r	1A
[2F	[2A	2c	.
=23	=23	=23	=23
2F]	2A]	2.c	0r
2E	2G	.	.
.	.	4B-y	.
2F	2c	4A	.
.	.	4G	.
2D	[2d	[2B-y	.
=24	=24	=24	=24
1E	4d]	2B-]	1r
.	8cL	.	.
.	8B-yJ	.	.
.	2c	4A	.
.	.	4G	.
2D	2F	2A	2r
2F	[2f	2F	2c
=25	=25	=25	=25
1C	2f]	1G	2.c
.	2e	.	.
.	.	.	4B-y
2D	[1f	1F	4A
.	.	.	4G
[2BB-y	.	.	[2B-y
=26	=26	=26	=26
4BB-]	1f]	0r	2B-]
4C	.	.	.
2.D	.	.	4A
.	.	.	4G
.	1r	.	2A
4C	.	.	.
[2F	.	.	2F
=27	=27	=27	=27
2F]	1r	2r	1G
2E	.	1B-y	.
1F	2r	.	1F
.	2c	2A	.
=28	=28	=28	=28
2r	2B-y	2G	0r
2FF	1c	2.A	.
2AA	.	.	.
.	.	4G	.
2BB-y	4B-y	[2F	.
.	4A	.	.
=29	=29	=29	=29
2C	1G	2F]	2r
2GG	.	2E	1B-y
2.D	2F	1F	.
.	[2d	.	2A
4C	.	.	.
=30	=30	=30	=30
2BB-y	4d]	1r	2G
.	4B-y	.	.
2AA	2c	.	2.A
1D	2r	2r	.
.	.	.	4G
.	2F	2B-y	[2F
=31	=31	=31	=31
1C	2G	1c	2F]
.	2.A	.	2E
2r	.	1d	1F
.	4F	.	.
2BB-y	2B-y	.	.
=32	=32	=32	=32
1C	2G	1c	1r
.	1A	.	.
1D	.	1r	2r
.	4G	.	2B-y
.	4F	.	.
=33	=33	=33	=33
1C	4A	0r	1c
.	4G	.	.
.	1c	.	.
1G	.	.	1d
.	2B-y	.	.
=34	=34	=34	=34
1C	4c	2r	1c
.	4B-y	.	.
.	4G	2c	.
.	4A	.	.
2.D	4B-y	2F	1r
.	4c	.	.
.	[2d	[2B-y	.
4C	.	.	.
=35	=35	=35	=35
4D	4d]	4B-]	0r
4E	4c	4A	.
1F	4B-y	2F	.
.	4A	.	.
.	1B-y	1G	.
2E	.	.	.
=36	=36	=36	=36
1F	2.A	1F	2r
.	.	.	2c
.	4B-y	.	.
1r	2c	1r	2F
.	[2d	.	[2B-y
=37	=37	=37	=37
1r	4d]	0r	4B-]
.	4c	.	4A
.	1f	.	2F
1C	.	.	1G
.	2e	.	.
=38	=38	=38	=38
2FF	1f	2r	1F
4BB-y	.	1B-y	.
4C	.	.	.
4D	2r	.	1r
4E	.	.	.
[2F	2F	2A	.
=39	=39	=39	=39
2F]	2B-y	1G	0r
2E	2B-y	.	.
1F	2.A	2.F	.
.	4G	4G	.
=40	=40	=40	=40
0r	4F	2A	2r
.	4E	.	.
.	2G	1G	1B-y
.	2E	.	.
.	2F	[2F	2A
=41	=41	=41	=41
2r	2C	2F]	1G
2C	1c	2E	.
2.D	.	1F	2.F
.	2B-y	.	.
4C	.	.	4G
=42	=42	=42	=42
2AA	2c	0r	2A
2.BB-y	2.d	.	1G
4AA	4c	.	.
2FF	4B-y	.	[2F
.	4A	.	.
=43	=43	=43	=43
1C	1G	0c	2F]
.	.	.	2E
2FF	1F	.	1F
[2F	.	.	.
=44	=44	=44	=44
4F]	2r	0F	0r
4E	.	.	.
4D	1f	.	.
4C	.	.	.
2BB-y	.	.	.
2D	2f	.	.
=45	=45	=45	=45
0C	2e	1G	0c
.	2c	.	.
.	1e	1A	.
=46	=46	=46	=46
4BB-y	1d	1B-y	0F
4C	.	.	.
4D	.	.	.
4E	.	.	.
2F	2c	2A	.
2BB-y	[2d	[2B-y	.
=47	=47	=47	=47
1E-i	4d]	2B-]	1G
.	8cL	.	.
.	8B-yJ	.	.
.	2c	4A	.
.	.	4G	.
2D	1d	2F	1A
[2F	.	2A	.
=48	=48	=48	=48
4F]	2r	1G	1B-y
8EL	.	.	.
8DJ	.	.	.
2E	2G	.	.
2F	2c	1F	2A
2BB-y	[2d	.	[2B-y
=49	=49	=49	=49
2.D	2d]	2r	2B-]
.	4c	2F	4A
4E	4B-y	.	4G
2.F	4d	2.A	2F
.	4c	.	.
.	[2f	.	2A
4E	.	4B-y	.
=50	=50	=50	=50
1C	2f]	1c	1G
.	2e	.	.
2r	[1f	2r	1F
2F	.	2c	.
=51	=51	=51	=51
2D	1f]	1d	2r
2BB-y	.	.	2F
[1F	2r	2.c	2.A
.	2F	.	.
.	.	4B-y	4B-y
=52	=52	=52	=52
2F]	2A	4A	1c
.	.	4G	.
2E	2G	2c	.
2D	2F	2B-y	2r
2C	[2E	[2A	2c
=53	=53	=53	=53
1BB-y	2E]	4A]	1d
.	.	8GL	.
.	.	8FJ	.
.	2D	2G	.
2AA	[1E	1A	2.c
[2C	.	.	.
.	.	.	4B-y
=54	=54	=54	=54
2C]	2E]	0r	4A
.	.	.	4G
4BB-y	4D	.	2c
4AA	4C	.	.
2GG	4D	.	2B-y
.	4E	.	.
2FF	[2F	.	[2A
=55	=55	=55	=55
1C	2F]	0c	4A]
.	.	.	8GL
.	.	.	8FJ
.	2E	.	2G
2FF	2F	.	1A
2C	[2A	.	.
=56	=56	=56	=56
2D	2A]	1B-y	0r
2E	1G	.	.
2.F	.	2.A	.
.	[2F	.	.
8EL	.	8GL	.
8DJ	.	8FJ	.
=57	=57	=57	=57
1C	2F]	1G	0c
.	2E	.	.
2r	2F	1F	.
2FF	[2f	.	.
=58	=58	=58	=58
4BB-y	2f]	2r	1B-y
4C	.	.	.
4D	4e	2F	.
4E	4d	.	.
2.F	2c	4F	2.A
.	.	4G	.
.	[2f	4A	.
8EL	.	4B-y	8GL
8DJ	.	.	8FJ
=59	=59	=59	=59
1C	2f]	1c	1G
.	2e	.	.
2r	[1f	2r	1F
2F	.	2c	.
=60	=60	=60	=60
2D	1f]	1d	2r
2BB-y	.	.	2F
[1F	2r	2.c	4F
.	.	.	4G
.	2F	.	4A
.	.	4B-y	4B-y
=61	=61	=61	=61
2F]	2A	4A	1c
.	.	4G	.
2E	2G	2c	.
2D	2F	2B-y	2r
2C	[2E	[2A	2c
=62	=62	=62	=62
1BB-y	2E]	4A]	1d
.	.	8GL	.
.	.	8FJ	.
.	2D	2G	.
2AA	[1E	1A	2.c
[2C	.	.	.
.	.	.	4B-y
=63	=63	=63	=63
2C]	2E]	0r	4A
.	.	.	4G
4BB-y	4D	.	2c
4AA	4C	.	.
2GG	4D	.	2B-y
.	4E	.	.
2FF	[2F	.	[2A
=64	=64	=64	=64
1C	2F]	0c	4A]
.	.	.	8GL
.	.	.	8FJ
.	2E	.	2G
2FF	2F	.	1A
2C	[2A	.	.
=65	=65	=65	=65
2D	2A]	1B-y	0r
2E	1G	.	.
2.F	.	2.A	.
.	[2F	.	.
8EL	.	8GL	.
8DJ	.	8FJ	.
=66	=66	=66	=66
1C	2F]	1G	0c
.	2E	.	.
2r	[1F	1F	.
2FF	.	.	.
=67	=67	=67	=67
2.BB-y	0F]	1r	1B-y
4C	.	.	.
4D	.	2r	2.A
4E	.	.	.
[2F	.	2F	.
.	.	.	8GL
.	.	.	8FJ
=68	=68	=68	=68
2F]	2r	1B-y	1G
2E	2G	.	.
2F	2c	1A	1F
2FF	2c	.	.
=69	=69	=69	=69
[0BB-y	2.B-y	2G	1r
.	.	1B-y	.
.	8AL	.	.
.	8GJ	.	.
.	1F	.	2r
.	.	2A	2F
=70	=70	=70	=70
1BB-]	2r	1G	1B-y
.	2G	.	.
1FF	2c	1F	1A
.	2c	.	.
=71	=71	=71	=71
0BB-y	2.B-y	2r	2G
.	.	2D	1B-y
.	4c	.	.
.	1d	[1F	.
.	.	.	2A
=72	=72	=72	=72
1C	1c	2F]	1G
.	.	2E	.
1FF	2r	2D	[1Fl
.	2A	2C	.
=73	=73	=73	=73
0BB-y	1.B-y	0D	0F_
.	2B-y	.	.
=74	=74	=74	=74
00FFl	00Al	00Cl	00F]
==	==	==	==
*-	*-	*-	*-
!!!system-decoration: [*]
!!!RDF**kern: i = editorial accidental
!!!RDF**kern: l = terminal long
!!!ENC: Benjamin Ory
!!!END: 2025/5/5
!!!EED: Benjamin Ory
!!!EEV: 2025/05/05
!!!YEC: Copyright 2025 Benjamin Ory, All Rights Reserved
!!!ONB: Translated from MusicXML on 2025/05/05